X: 36
T: 32. HARRY COOPER
B: Sam Bayard, "Hill Country Tunes" 1944 #32
S: Played by Irvin Yaugher Jr, Mt Independence, PA, Oct 19 1943.
R: reel
M: 4/4
L: 1/8
Z: 2010 John Chambers <jc:trillian.mit.edu>
%%slurgraces
K: G
(3D>EF |\
G2DC B,G,B,[DG,] | EDEG FDD2 | G3A ^/cAcA | EAA2 A2 (D>EF |
G2DC B,G,B,D | EDEG FDD2 | G2Bd e^/cAF | G2GG G2 || ef |
g2d2 e2^/cA | dBAG FDD2 | G3A ^/cAcA | EAA2 A2ef |
g2d2 e2^/cA | cBAG FDD2 | G2Bd e^/cAF | G3G G2 |]

%%sep 2 1 500
%%sep 1 1 500

